svgs/sharp-solid/windsock.svg

<svg xmlns="http://www.w3.org/2000/svg" viewBox="0 0 512 512"><!--! Font Awesome Pro 6.6.0 by @fontawesome - https://fontawesome.com License - https://fontawesome.com/license (Commercial License) Copyright 2024 Fonticons, Inc. --><path d="M64 32L64 0 0 0 0 32 0 480l0 32 64 0 0-32 0-160 64 0 0 48 80-16.7 0-286.7L128 48l0 48L64 96l0-64zm64 112l0 128-64 0 0-128 64 0zM272 78l0 260 96-20 0-220L272 78zM512 288l0-160-80-16.7 0 193.3L512 288z"/></svg>

<svg xmlns="http://www.w3.org/2000/svg" viewBox="0 0 512 512"><!--! Font Awesome Pro 6.4.0 by @fontawesome - https://fontawesome.com License - https://fontawesome.com/license (Commercial License) Copyright 2023 Fonticons, Inc. --><path d="M64 32V0H0V32 480v32H64V480 320h64v48l80-16.7V64.7L128 48V96H64V32zm64 112V272H64V144h64zM272 78V338l96-20V98L272 78zM512 288V128l-80-16.7V304.7L512 288z"/></svg>
